src/images/feather.svg

<?xml version="1.0" encoding="UTF-8" standalone="no"?>
<svg
   xmlns:dc="http://purl.org/dc/elements/1.1/"
   xmlns:cc="http://creativecommons.org/ns#"
   xmlns:rdf="http://www.w3.org/1999/02/22-rdf-syntax-ns#"
   xmlns:svg="http://www.w3.org/2000/svg"
   xmlns="http://www.w3.org/2000/svg"
   xmlns:sodipodi="http://sodipodi.sourceforge.net/DTD/sodipodi-0.dtd"
   xmlns:inkscape="http://www.inkscape.org/namespaces/inkscape"
   width="24"
   height="24"
   viewBox="0 0 6.3499999 6.3500002"
   version="1.1"
   id="svg8"
   inkscape:version="1.0.1 (3bc2e813f5, 2020-09-07)"
   sodipodi:docname="feather.svg"
   inkscape:export-filename="/home/rathod-sahaab/projects/personal/webapps/fun/gulzar-reincarnate/src/images/feather-black.png"
   inkscape:export-xdpi="512"
   inkscape:export-ydpi="512">
  <defs
     id="defs2" />
  <sodipodi:namedview
     id="base"
     pagecolor="#ffffff"
     bordercolor="#666666"
     borderopacity="1.0"
     inkscape:pageopacity="0.0"
     inkscape:pageshadow="2"
     inkscape:zoom="5.6"
     inkscape:cx="2.4322858"
     inkscape:cy="31.114145"
     inkscape:document-units="px"
     inkscape:current-layer="layer1"
     inkscape:document-rotation="0"
     showgrid="false"
     units="px"
     inkscape:window-width="1533"
     inkscape:window-height="1016"
     inkscape:window-x="193"
     inkscape:window-y="28"
     inkscape:window-maximized="0" />
  <metadata
     id="metadata5">
    <rdf:RDF>
      <cc:Work
         rdf:about="">
        <dc:format>image/svg+xml</dc:format>
        <dc:type
           rdf:resource="http://purl.org/dc/dcmitype/StillImage" />
        <dc:title></dc:title>
      </cc:Work>
    </rdf:RDF>
  </metadata>
  <g
     inkscape:label="Layer 1"
     inkscape:groupmode="layer"
     id="layer1">
    <path
       style="fill:#000000;stroke-width:0.999999"
       d="m 0.63382622,5.9277413 c 0,-0.1635576 0.1558889,-0.7147584 0.31757948,-1.1229205 C 1.0415697,4.5772172 1.23585,4.1832782 1.3586417,3.9790717 1.4968738,3.749184 1.6353544,3.5562639 1.8272173,3.3262801 2.5364982,2.4760796 3.470139,1.7059346 4.5226689,1.1028487 4.720398,0.98955295 5.1552933,0.76629996 5.344776,0.68082316 5.398007,0.65681116 5.440129,0.63572746 5.438379,0.63397886 5.432849,0.62845686 5.0977943,0.75966956 4.9467032,0.82654336 4.7379008,0.91896025 4.3505091,1.1156788 4.1432697,1.2345256 3.486665,1.6110747 2.8854724,2.0666667 2.3660097,2.5813559 1.6442539,3.2964742 1.1978027,3.8900683 0.85125062,4.5953433 c -0.056476,0.1149355 -0.1092307,0.216861 -0.1172321,0.2265034 -0.035985,0.04336 -0.088943,-0.00665 -0.134381,-0.1268578 -0.062993,-0.1666742 -0.1258906,-0.5187888 -0.1197893,-0.6706082 l 0.00335,-0.082971 0.074862,0.1387885 c 0.094284,0.1747939 0.1868364,0.3319177 0.1869179,0.3173264 3.47e-5,-0.00615 -0.0073,-0.056064 -0.016294,-0.110953 C 0.69891212,4.1048878 0.68401412,3.8169907 0.69835912,3.700474 0.71554012,3.5609367 0.75010412,3.4908041 0.9441118,3.2018318 1.3185049,2.644172 1.5931799,2.3264481 1.9001277,2.0959789 1.9898287,2.0286279 2.2054812,1.8923748 2.2223766,1.8923748 c 0.00134,0 -0.00121,0.036395 -0.00566,0.0809 -0.00446,0.044498 -0.00842,0.098181 -0.0088,0.1193028 -6.693e-4,0.038277 -5.856e-4,0.038235 0.039176,-0.027902 C 2.3243826,1.9361445 2.4127185,1.8293078 2.5741435,1.6691303 2.8569517,1.3885077 3.1843984,1.1629288 3.6188143,0.94946045 3.8710812,0.82549756 3.9337747,0.80133906 4.5784712,0.57963816 c 0.1352399,-0.0465055 0.4091636,-0.1267533 0.4326719,-0.1267533 0.00573,0 -0.00508,0.017653 -0.024012,0.039197 -0.031642,0.03606 -0.07439,0.1058578 -0.064814,0.1058578 0.00226,0 0.05295,-0.02489 0.1126828,-0.055294 0.2384981,-0.1214238 0.3731456,-0.1567222 0.5978648,-0.1567222 0.1702053,0 0.2137369,0.012341 0.2323993,0.065874 0.015687,0.045004 -0.00243,0.097989 -0.068146,0.1993037 C 5.6849519,0.82402496 5.5697144,0.92195125 5.2418942,1.1229284 5.1102303,1.2036488 4.9648435,1.2974546 4.9188141,1.3313893 4.8727838,1.3653157 4.7120967,1.5169385 4.5617323,1.6683186 4.4113674,1.8196946 4.2305947,1.99297 4.1600154,2.0533681 3.7168539,2.432628 3.2368328,2.7461225 2.7542176,2.9714756 c -0.082738,0.038612 -0.1478097,0.070241 -0.1446028,0.070241 0.00322,0 0.1182185,-0.020038 0.2555825,-0.044564 0.1373633,-0.024514 0.2514098,-0.042904 0.2534354,-0.040871 0.00469,0.00469 -0.113248,0.175413 -0.2016318,0.2918838 -0.2443957,0.3220535 -0.5038666,0.600007 -0.6930376,0.7424015 -0.1134906,0.085431 -0.2960156,0.1867832 -0.3825475,0.2124225 -0.026279,0.00778 -0.043856,0.018072 -0.039055,0.022882 0.014282,0.014265 0.1382493,0.043301 0.1868234,0.043778 l 0.04508,4.183e-4 -0.055794,0.051454 C 1.8908062,4.4023717 1.734592,4.5200181 1.6230693,4.589176 1.5108349,4.658777 1.3023891,4.7611253 1.2280406,4.7831377 c -0.026083,0.00774 -0.047425,0.01757 -0.047425,0.02192 0,0.028112 0.2711427,0.029032 0.3712715,0.00125 0.041293,-0.011462 0.075081,-0.017026 0.075081,-0.012382 0,0.00464 -0.022991,0.03401 -0.05109,0.06528 C 1.4777561,4.968339 1.2881328,5.0323682 1.0805052,5.0264739 l -0.10569,-0.00293 -0.042241,0.1110492 c -0.05421,0.1425116 -0.18578878,0.5305019 -0.23728118,0.6996735 -0.039963,0.1312879 -0.061459,0.1640011 -0.061459,0.093521 z"
       id="path863" />
  </g>
</svg>

<svg xmlns="http://www.w3.org/2000/svg" width="24" height="24" viewBox="0 0 6.35 6.35"><path style="fill:#fff;stroke-width:.999999" d="M.634 5.928c0-.164.156-.715.317-1.123a7.14 7.14 0 0 1 .408-.826 4.95 4.95 0 0 1 .468-.653c.71-.85 1.643-1.62 2.696-2.223.197-.113.632-.337.822-.422a.64.64 0 0 0 .093-.047 6.147 6.147 0 0 0-.491.193c-.21.092-.596.289-.804.408A8.627 8.627 0 0 0 2.366 2.58c-.722.715-1.168 1.31-1.515 2.014a3.54 3.54 0 0 1-.117.227C.698 4.864.645 4.814.6 4.694a2.375 2.375 0 0 1-.12-.67l.003-.084.075.14c.094.174.187.331.187.317a1.71 1.71 0 0 0-.016-.111 2.808 2.808 0 0 1-.03-.587c.017-.14.051-.21.245-.498.375-.558.65-.876.956-1.106.09-.067.305-.204.322-.204a.68.68 0 0 1-.005.081 1.986 1.986 0 0 0-.01.12c0 .038 0 .038.04-.028.077-.129.166-.236.327-.396.283-.28.61-.506 1.045-.72.252-.124.315-.148.96-.37.135-.046.409-.126.432-.126.006 0-.005.018-.024.04-.032.035-.074.105-.065.105.003 0 .053-.025.113-.055.238-.122.373-.157.598-.157.17 0 .214.012.232.066.016.045-.002.098-.068.2-.112.172-.227.27-.555.47a6.383 6.383 0 0 0-.323.21 5.482 5.482 0 0 0-.357.336 9.6 9.6 0 0 1-.402.385c-.443.38-.923.693-1.406.918-.083.04-.148.07-.144.07l.255-.044a3.95 3.95 0 0 1 .254-.04 3.24 3.24 0 0 1-.202.291c-.244.322-.504.6-.693.743a1.623 1.623 0 0 1-.383.212c-.026.008-.043.018-.039.023a.574.574 0 0 0 .187.044h.045l-.056.052a2.396 2.396 0 0 1-.75.461c-.026.008-.047.018-.047.022 0 .028.27.03.37.001.042-.011.076-.017.076-.012a.354.354 0 0 1-.051.065c-.098.11-.288.173-.495.167l-.106-.002-.042.11c-.055.143-.186.531-.238.7-.04.132-.061.164-.061.094z"/></svg>
